X:1
T: Athole Brose
T:Properly called "Buckingham House"
R:Strathspey
Q:128
K:G
M:4/4
L:1/16
|:A|F3D DDD2 A,3D D2G2|F3D DDD2 GAB2 A3G|F3D DDD2 A,3D D3=F|((3E2=F2G2) C3E c3G E3G|
F3D DDD2 A,3D D2G2|F3D DDD2 GAB2 A3G|F3D DDD2 A,3D D3=F|((3E2=F2G2) C3E c3G E3G|
D2d2 d3c d2e2 d2c2|A2d2 d3e =f3d e3c|dd3 =f2d2 e2c2 f2d2|c3d c2G2 E2C2 G2E2|
D2d2 d3c d2e2 d2c2|A2d2 d3e =f3d e3c|dd3 =f2d2 e2c2 f2d2|c3d c2G2 E2C2 G2E:|
